X:1
T:Title
%%score ( 1 2 ) ( 3 4 )
L:1/8
Q:1/4=75
M:6/8
K:C
V:1 treble nm="Strings 1, Treble"
V:2 treble 
V:3 bass nm="Strings 1, Bass"
V:4 bass 
V:1
 [EG][EG][EG] [Ec][Ec][Ec] | [Fc]3 [FA]2 [^FA] | [GB][GB][GB] [Gc]2 [Gd] | [Ge]6 | %4
w: 1.~I~ would~ be~ clos er,~ my~|Sav ior,~ Yes,~|clos er~ to~ Thee~ each~|day,~|
 [EG][EG][EG] [Ec][Ec][Ec] | [Fc]3 [FA]2 [^FA] | [GB][GB][Gf] [Ge]2 [Fd] | [Ec]6 | %8
w: Filled~ with~ Thy~ Spir it~ and~|pow er,~ And~|walk ing~ the~ ho ly~|way.~|
 [Ec][Ec][Ec] [Ec][Ec][Ec] | [FB]6 | [Fd][Fd][Fd] [Fd][Fd][Fd] | [Ec]6 | [Ge][Ge][Ge] [Ge]2 [Gc] | %13
w: |||||
 [Ac]2 [FA] [FA]3 | [EG][EG][EG] [Ec]2 [Fd] | c6 |] %16
w: |||
V:2
 x6 | x6 | x6 | x6 | x6 | x6 | x6 | x6 | x6 | x6 | x6 | x6 | x6 | x6 | x6 | E2 F .E3 |] %16
V:3
 [C,C][C,C][C,C] [C,G,][C,G,][C,G,] | [F,A,]3 [F,C]2 [D,D] | [G,D][G,D][F,D] [E,C]2 [D,B,] | %3
 [C,C]6 | [C,C][C,C][C,C] [C,G,][C,G,][C,G,] | [F,A,]3 [F,C]2 [D,D] | %6
 [G,D][G,D][G,D] [G,C]2 [G,B,] | [C,C]6 | [A,C][A,C][A,C] [A,C][A,C][A,C] | %9
 [G,D][G,D][G,D] .[G,D]3 | [G,B,][G,B,][G,B,] [G,B,][G,B,][G,B,] | C[G,C][D,G,] .[C,G,]3 | %12
 [C,C][C,C][C,C] [C,C]2 [E,C] | [F,C]2 [F,C] [F,C]3 | [G,C][G,C][G,C] [G,C]2 [G,B,] | C2 A, .G,3 |] %16
V:4
 x6 | x6 | x6 | x6 | x6 | x6 | x6 | x6 | x6 | x6 | x6 | x6 | x6 | x6 | x6 | C,6 |] %16

